X:21111 
T:LET IT BE SO 
B:DMI.0196
Z:Nordberg/Black
R:jig
%Q:1/4=160
M:6/8
L:1/8
K:D
B|ABA AFE|F3 FED|ABA AFA|DFA dcB|
ABA AFE|FGF FEF|DED FEF|DFA d2:|
B|Acd e2d|e2d cBA|Acd e2f|gfe d2A|
def gfe|ded dcB|AcA AFA|DFA d2:|

%%%

